build/logo/UtariSolid.svg

<svg xmlns="http://www.w3.org/2000/svg" fill="none" viewBox="0 0 24 24" focusable="false"><path d="M0 0H24V24H0z"/><path fill="#74767B" fill-rule="evenodd" d="M12.6486 3.45005C12.6486 3.09106 12.3577 2.80005 11.9986 2.80005C11.6397 2.80005 11.3486 3.09106 11.3486 3.45005L11.3486 5.80824C9.71095 6.10638 8.45814 7.50808 8.38877 9.21478L5.73211 13.8162C5.40897 13.5632 5.09759 13.2879 4.80005 12.9904C4.54621 12.7365 4.13465 12.7365 3.88081 12.9904C3.62697 13.2442 3.62697 13.6558 3.88081 13.9096C4.26046 14.2893 4.66008 14.6368 5.07629 14.9521L4.76519 15.491C4.3176 16.2662 4.29166 17.215 4.69622 18.0136L6.13008 20.8438C6.23806 21.057 6.45429 21.1937 6.69315 21.1998C6.93201 21.206 7.155 21.0806 7.27383 20.8733L9.49545 16.9977C11.1441 17.3645 12.858 17.3644 14.5065 16.9973L16.7283 20.8733C16.8472 21.0806 17.0702 21.206 17.309 21.1998C17.548 21.1937 17.7641 21.057 17.8722 20.8438L19.306 18.0136C19.7106 17.215 19.6846 16.2662 19.2371 15.491L18.9253 14.951C19.341 14.636 19.7401 14.2888 20.1193 13.9096C20.3731 13.6558 20.3731 13.2442 20.1193 12.9904C19.8654 12.7365 19.4538 12.7365 19.2001 12.9904C18.903 13.2875 18.5921 13.5624 18.2695 13.8151L15.6116 9.21152C15.5406 7.50519 14.2868 6.10438 12.6486 5.80766L12.6486 3.45005ZM12.0002 7.04966C10.722 7.04966 9.68575 8.08589 9.68575 9.36414C9.68575 10.6423 10.722 11.6786 12.0002 11.6786C13.2785 11.6786 14.3146 10.6423 14.3146 9.36414C14.3146 8.08589 13.2785 7.04966 12.0002 7.04966ZM12.0002 12.9786C11.9338 12.9786 11.868 12.9768 11.8025 12.9733L10.1768 15.8091C11.3823 16.0274 12.6196 16.0273 13.8251 15.8087L12.1997 12.9732C12.1336 12.9768 12.0672 12.9786 12.0002 12.9786Z"/></svg>

<svg xmlns="http://www.w3.org/2000/svg" fill="none" viewBox="0 0 24 24" focusable="false"><path fill="#74767B" fill-rule="evenodd" d="M12.64 3.45c0-.36-.29-.65-.65-.65s-.65.29-.65.65V5.8c-1.63.3-2.89 1.7-2.96 3.41l-2.65 4.6c-.33-.25-.64-.53-.93-.82a.64.64 0 0 0-.92 0c-.26.25-.26.66 0 .91.38.38.78.73 1.19 1.05l-.31.54a2.65 2.65 0 0 0-.07 2.52l1.43 2.83c.11.21.33.35.57.35.24.01.46-.11.58-.32l2.22-3.88c1.65.37 3.36.37 5.01 0l2.22 3.88c.12.21.35.33.58.32.24 0 .46-.14.57-.35l1.43-2.83c.41-.8.38-1.75-.07-2.52l-.31-.54c.42-.32.82-.67 1.19-1.05.26-.25.26-.66 0-.91a.63.63 0 0 0-.91 0c-.3.29-.61.57-.94.82l-2.65-4.6a3.626 3.626 0 0 0-2.97-3.41zM12 7.04c-1.28 0-2.32 1.04-2.32 2.32s1.04 2.31 2.32 2.31c1.27 0 2.31-1.03 2.31-2.31A2.32 2.32 0 0 0 12 7.04m0 5.93h-.2l-1.63 2.83c1.21.22 2.44.22 3.65 0l-1.63-2.83z"/></svg>
